X:1
T:The Three Crows
M:2/2
L:1/4
K:F
 G| D G G A| B B B G| F/2 F F/2 F3/2 D/2| F3 F| D G G A| B B B c| d/2 d d/2 d3/2 c/2|\
 d3 B| d d d A| c c c G| A A/2A/2 A F| B B B B/2c/2| d2 c c| B B A2|\
 f/2- c3/2 f/2- c3/2| f/2- c3/2- c B/2c/2| d2 c c| B B A2| G/2 G G/2 G3/2 D/2|\
 G3||

